dist/assets/img/svg/damac-logo.svg

<svg width="139" height="15" viewBox="0 0 139 15" xmlns="http://www.w3.org/2000/svg">
<path d="M138.894 0.147917L138.956 0.0150936H126.774C123.183 0.0150936 120.124 0.664117 117.595 1.96217C115.142 3.19466 113.226 5.117 112.152 7.42302C111.444 8.91427 111.242 10.2687 111.547 11.4862C111.711 12.1036 112.041 12.6768 112.51 13.1568C112.979 13.6368 113.572 14.0092 114.24 14.2423C115.563 14.7474 117.77 15 120.859 15H131.865L132.962 12.6213H126.774C123.785 12.6213 121.796 12.2811 120.807 11.6009C119.717 10.8674 119.84 9.16482 120.691 7.37472C122.167 4.25941 125.257 2.31837 129.531 2.31837H134.325L133.222 4.65788H136.875L139 0.147917H138.894ZM96.2182 9.00181L103.63 2.6293L105.171 9.00181H96.2182ZM33.1901 9.02596L40.407 2.92514L41.7089 9.02596H33.1901ZM102.994 0H98.4803L81.1112 14.3691L87.8976 0.0150936H80.4552L71.4614 6.23969L66.8313 9.59952H66.6331L68.8132 4.70618L66.1444 0.0150936H58.6679L51.8679 14.3963L47.9485 0.0150936H39.7475L21.637 15H26.1783L30.805 11.0757H42.2078L43.1167 15H55.2337L59.6144 5.73556C59.8365 5.27068 60.0449 4.73637 60.2534 4.13866C60.2882 4.67061 60.4366 5.19195 60.6908 5.67519L64.5452 13.4031H65.1945L76.218 5.70537C76.8754 5.214 77.5017 4.69096 78.094 4.13866C77.6668 4.83598 77.3695 5.36728 77.1953 5.73556L72.8146 15H80.814H89.2473L93.8228 11.0757H105.666L106.616 15H110.782L106.726 0H102.994ZM23.6701 11.4862C25.0607 10.3476 26.1644 8.96321 26.9095 7.42302C28.0166 5.0805 27.9221 3.26021 26.6259 1.96217C25.3297 0.664117 22.883 0.0150936 19.286 0.0150936H7.11436L6.01406 2.36064H14.3962C18.6709 2.36064 19.9113 4.24431 18.4352 7.35963C17.5843 9.17086 16.8291 10.8221 15.0488 11.5617C13.4223 12.2379 11.7377 12.4371 8.74773 12.4371H4.86934L7.76361 6.36949H4.1005L0 15H11.0338C14.1273 15 16.5717 14.7474 18.3668 14.2423C20.3439 13.6821 22.1554 12.7407 23.6701 11.4862Z" />
</svg>

<svg width="139" height="15" xmlns="http://www.w3.org/2000/svg"><path d="M138.894.148l.062-.133h-12.182c-3.591 0-6.65.65-9.179 1.947-2.453 1.233-4.369 3.155-5.443 5.461-.708 1.491-.91 2.846-.605 4.063.164.618.494 1.19.963 1.67s1.062.853 1.73 1.086c1.323.505 3.53.758 6.619.758h11.006l1.097-2.379h-6.188c-2.989 0-4.978-.34-5.967-1.02-1.09-.734-.967-2.436-.116-4.226 1.476-3.116 4.566-5.057 8.84-5.057h4.794l-1.103 2.34h3.653L139 .148h-.106zM96.218 9.002l7.412-6.373 1.541 6.373h-8.953zm-63.028.024l7.217-6.1 1.302 6.1H33.19zM102.994 0H98.48L81.111 14.37 87.898.014h-7.443L71.461 6.24l-4.63 3.36h-.198l2.18-4.894-2.669-4.69h-7.476l-6.8 14.38-3.92-14.38h-8.2L21.637 15h4.541l4.627-3.924h11.403L43.117 15h12.117l4.38-9.264c.223-.465.43-1 .64-1.597a3.82 3.82 0 00.437 1.536l3.854 7.728h.65l11.023-7.698a22.518 22.518 0 001.876-1.566c-.427.697-.724 1.228-.899 1.597L72.815 15h16.432l4.576-3.924h11.843l.95 3.924h4.166l-4.056-15h-3.732zM23.67 11.486c1.39-1.138 2.494-2.523 3.24-4.063 1.107-2.343 1.012-4.163-.284-5.46C25.33.663 22.883.014 19.286.014H7.114l-1.1 2.346h8.382c4.275 0 5.515 1.883 4.04 4.999-.852 1.81-1.607 3.462-3.387 4.202-1.627.676-3.311.875-6.301.875H4.869L7.764 6.37H4.1L0 15h11.034c3.093 0 5.538-.253 7.333-.758 1.977-.56 3.788-1.501 5.303-2.756z"/></svg>3L93.8228 11.0757H105.666L106.616 15H110.782L106.726 0H102.994ZM23.6701 11.4862C25.0607 10.3476 26.1644 8.96321 26.9095 7.42302C28.0166 5.0805 27.9221 3.26021 26.6259 1.96217C25.3297 0.664117 22.883 0.0150936 19.286 0.0150936H7.11436L6.01406 2.36064H14.3962C18.6709 2.36064 19.9113 4.24431 18.4352 7.35963C17.5843 9.17086 16.8291 10.8221 15.0488 11.5617C13.4223 12.2379 11.7377 12.4371 8.74773 12.4371H4.86934L7.76361 6.36949H4.1005L0 15H11.0338C14.1273 15 16.5717 14.7474 18.3668 14.2423C20.3439 13.6821 22.1554 12.7407 23.6701 11.4862Z" />
</svg>
